X:202
T:Roger the Ploughboy - Ford
%%VWML:SBG-1-2-364-0
F:http://www.vwml.org/record/SBG/1/2/364
Z:Original Sibelius transcriptions by M. & S. Graebe
M:4/4
I:linebreak $
K:F
V:1 treble nm="P1"
V:1
 C2 | F2 Ac d2 c B | A>B AG F3 FA | cccc dcAF |$ AGGG G2 AB | ccGA B2 AB | ccGA B3 B | cccc dcAF |$ %8
 AGFE F3 F | G2 CC C2 FA | cccc dcAF | GFFF F4 | %12
T:Roger the Ploughboy - Joyce's
F:http://www.vwml.org/record/SBG/1/2/
Z:Original Sibelius transcriptions by M. & S. Graebe
M:4/4
I:linebreak $
K:C
V:1 treble nm="P1"
V:1
 GF | D G G G G2 =F G | A2 =F3/2 F/ F2 Ac | d2 d e =fd c A |$ G2 G3/2 G/ G2 B c | %5
 d3/2 e/ d B c2 B c | d e d B c2 B c | d e =f d c A G ^F |$ G2 FE D2 FD | G2 G3/2 G/ G>A B G | %10
 A2 =F3/2 F/ F2 (Ac) | d2 d e =f d c A | G2 G2 G2 x2 | %13
T:Roger the Ploughboy - ingraved copperplate
F:http://www.vwml.org/record/SBG/1/2/364
Z:Original Sibelius transcriptions by M. & S. Graebe
M:3/4
I:linebreak $
K:A
V:1 treble nm="P1"
V:1
 E/ | A3/2 B/ A | G B ^D | E e d | c2 B/A/ | d3/2 e/ d | c d e | f B A | G2 e/d/ |$ c B ^A | %10
 B/c/ d c | B A G | A2 E/ E/ | (F d) c | f !fermata!e z/ d/ | (c/e/) c/A/ B/G/ | A2 z/ x/ | %17


